X:1
T:Title
%%score { ( 1 3 ) | ( 2 4 ) }
L:1/8
Q:1/4=108
M:4/4
K:G
V:1 treble nm="Grand Piano"
V:3 treble 
V:2 bass 
V:4 bass 
V:1
 [B,DB]3 [B,DA] [B,DG]2 [B,D]2 | [CE]2 [EG]2 [EG]4 | [B,EG]3 [B,EG] [^CF]2 [CE]2 | A6 z2 | %4
w: W.~E.~Howard * * *||||
 [B,DB]3 [B,DA] [B,DG]2 [B,D]2 |[M:5/4] [CE]2 [Ec]2 [CEc]6 | %6
w: ||
[M:19/16] [DGB]-<[DGB][A,^CG]-<[A,CG][=CFA]/-[CFA]/-[CFA]/-[CFA]/-[CFA]/-[CFA]-<[CFA][B,DG] | %7
w: |
[M:4/4] [B,DG]6 z2 | z4 A4 | d2 G2 [FA]4 | z2 .B2 z4 |[M:9/8] z3 z [FA]2- [FA]3 | %12
w: |||||
[M:4/4] d2 G2 F3- [FB] | d2 G2 [FA]4 | GABd BG .[A,^CE]2 | %15
w: |||
[M:11/8] [CFA]-[CFA]- [CFA]3 [B,DG]-[B,DG]-[B,DG]- [B,DG]3 |] %16
w: |
V:2
 [G,,D,]3 [G,,D,] [G,,D,]2 [G,,D,]2 | [C,G,]2 [C,G,C]2 [C,G,C]4 | %2
 [E,,E,]3 [E,,E,] [A,,A,]2 [A,,G,A,]2 | [F,D]2 A,2 G,2 F,2 | [G,,D,]3 [G,,D,] [G,,D,]2 [G,,D,]2 | %5
[M:5/4] [C,G,]2 [C,G,C]2 [A,,A,]6 | %6
[M:19/16] [D,,D,]-<[D,,D,][E,,E,]-<[E,,E,][D,,D,]/-[D,,D,]/-[D,,D,]/-[D,,D,]/-[D,,D,]/-[D,,D,]-<[D,,D,][G,,G,] | %7
[M:4/4] [G,,G,]6 z2 | [G,B,]2 [G,B,]2 [D,CD]4 | [G,B,D]2 [G,B,D]2 [D,CD]4 | %10
 [G,B,D]2 [D,B,D]2[K:treble] [EG][DG][K:bass] z D |[M:9/8] E,2 A,,- A,, D,2 D,,3 | %12
[M:4/4] [G,B,D]2 [G,B,D]2 [D,CD]4 | [G,B,D]2 [G,B,D]2 [D,CD]4 | [G,B,D]2 [D,B,D]2 [G,B,D]2 z G | %15
[M:11/8] [D,,D,]2 [D,,D,]3 [G,,G,]-[G,,G,]-[G,,G,]- [G,,G,]3 |] %16
V:3
 x8 | x8 | x8 | z2 F2 E2 D2 | x8 |[M:5/4] x10 |[M:19/16] x19/2 |[M:4/4] x8 | [Dd]2 [DG]2 F3- [FB] | %9
 x8 | GAG-[Gd] ed[DGB]G |[M:9/8] [^CGA]2 [CGB]- [CGB] D2 =C3 |[M:4/4] z4 A4 | x8 | x8 | %15
[M:11/8] x11 |] %16
V:4
 x8 | x8 | x8 | [D,C]8 | x8 |[M:5/4] x10 |[M:19/16] x19/2 |[M:4/4] x8 | x8 | x8 | %10
 z4[K:treble] [G,B,]2[K:bass] [D,B,]2 |[M:9/8] x9 |[M:4/4] x8 | x8 | z4 z2 A,,2 |[M:11/8] x11 |] %16

